!!!SOCIAL_FUNCTION:	songs with the corn dance
!!!PDT:	1956
!!!OTL: No_9_Corn_Dance_Song_(e).krn
!!!LANG: Non-Tone
!!!LING_GROUP: Muskogean
!!!REG: Florida
**kern
*staff1
=1-
=
*clefF4
*k[b-e-a-]
*M3/4
4B-\
8B-\L
8G\J
8G\L
8F\J
=2
8E-\L
8E-\J
4E-\
4r
=3
4G\
8B-\L
8G\J
8G\L
8F\J
=4||
*M2/4
8E-\L
8E-\J
4E-\
=5
8G\L
8F\J
4G\
=6
2F\
=7
8E-/L
8C/J
4C/
=8||
*M3/4
8C/
8r
8E-\L
8E-\J
4F\
=9
2.E-\
=10||
*M2/4
8E-/L
8BB-/J
4BB-/
=11
4BB-/
4r
=12:|!
8E-/L
8BB-/J
4BB-/
=13
8BB-/
8r
4r
=14!|:
*M3/4
4G\
8B-\L
8G\J
8G\L
8F\J
=15
8E-\L
8E-\J
4E-\
4r
=16
4B-\
8B-\L
8G\J
8G\L
8F\J
=17||
*M2/4
8E-\L
8E-\J
4E-\
=18
8G\L
8F\J
4G\
=19
2F\
=20
8.E-/L
16C/Jk
4C/
=21||
*M3/4
8C/
8r
8E-\L
8E-\J
4F\
=22
2.E-\
=23
8.E-/L
16BB-/Jk
4BB-/
8BB-/
8r
=24:|!
*M2/4
8E-/L
8BB-/J
4BB-/
=25||
*M3/4
2BB-/
8BB-/
8r
=26
(4.B-\
8F\)
4B-\
=27
(4.B-\
16F\)
16r
4B-\
=28
*M2/4
4r
8.r
16E-\
=29!|:
4c\
4c\
=30
4.B-\
8B-\
=31
4B-\
4F\
=32||
*M5/8
4.A-\
16F\
16r
8B-\
=33||
*M2/4
8A-\L
8F\J
8E-\L
8F\J
=34
4.E-\
8E-\
=35
8F\L
8E-\J
8D-\L
8F\J
=36
4.E-\
8A-\
=37
8A-\L
8F\J
4E-\
=38||
*M5/8
8B-\
4A-\
16F\
16r
8B-\
=39||
*M2/4
8A-\L
8F\J
8E-\L
8F\J
=40
4.E-\
8E-\
=41
8F\L
8E-\J
8D-\L
8F\J
=42
4.E-\
8A-\
=43
8A-\L
8F\J
4E-\
=44||
*M5/8
8B-\
4A-\
16F\
16r
8B-\
=45||
*M2/4
8A-\L
8F\J
8E-\L
8F\J
=46
4.E-\
8E-\
=47||
*M3/4
8F\L
8E-\J
8D-\L
8F\J
4E-\
=48
*M2/4
[2B-\
=49||
*M3/4
(4B-\]
4F\)
4B-\
=50
(4.B-\
16F\)
16r
4B-\
=51
*M2/4
4r
8.r
16G\
==:|!
*-
